icons/Document/file-forbid-line.svg

<svg viewBox="0 0 24 24" xmlns="http://www.w3.org/2000/svg"><path d="M11.2899 20C11.5049 20.7224 11.8334 21.396 12.2547 22H3.9934C3.44476 22 3 21.5447 3 21.0082V2.9918C3 2.44405 3.44749 2 3.9985 2H16L20.9998 7V11.6735C20.3781 11.3782 19.7061 11.1719 19 11.0709V8H15V4H5V20H11.2899ZM18 23C15.2386 23 13 20.7614 13 18C13 15.2386 15.2386 13 18 13C20.7614 13 23 15.2386 23 18C23 20.7614 20.7614 23 18 23ZM16.7066 20.7076C17.0982 20.895 17.5369 21 18 21C19.6569 21 21 19.6569 21 18C21 17.5369 20.895 17.0982 20.7076 16.7066L16.7066 20.7076ZM15.2924 19.2934L19.2934 15.2924C18.9018 15.105 18.4631 15 18 15C16.3431 15 15 16.3431 15 18C15 18.4631 15.105 18.9018 15.2924 19.2934Z"/></svg>

<svg xmlns="http://www.w3.org/2000/svg" viewBox="0 0 24 24">
    <g>
        <path fill="none" d="M0 0h24v24H0z"/>
        <path d="M11.29 20c.215.722.543 1.396.965 2H3.993A1 1 0 0 1 3 21.008V2.992C3 2.444 3.447 2 3.999 2H16l5 5v4.674a6.95 6.95 0 0 0-2-.603V8h-4V4H5v16h6.29zM18 23a5 5 0 1 1 0-10 5 5 0 0 1 0 10zm-1.293-2.292a3 3 0 0 0 4.001-4.001l-4.001 4zm-1.415-1.415l4.001-4a3 3 0 0 0-4.001 4.001z"/>
    </g>
</svg>
